src/components/common/icons/child-care.svg

<svg height="52" viewBox="0 0 31 52" width="31" xmlns="http://www.w3.org/2000/svg"><g fill="#010202" fill-rule="evenodd"><path d="m15.2867526 5.0194625c1.9986842 0 3.6253685 1.659125 3.6253685 3.693625 0 2.03775-1.6266843 3.69525-3.6253685 3.69525-2.0003158 0-3.627-1.6575-3.627-3.69525 0-2.0345 1.6266842-3.693625 3.627-3.693625m0-4.433c-4.4052631 0-7.97842102 3.638375-7.97842102 8.126625s3.57315792 8.12825 7.97842102 8.12825c4.4036316 0 7.9767895-3.64 7.9767895-8.12825s-3.5731579-8.126625-7.9767895-8.126625"/><path d="m28.2023316 26.8125-4.6092105-4.6215c-4.5586316-4.642625-11.9774211-4.642625-16.51647373-.017875l-4.67610526 4.652375c-2.51752632 2.56425-2.64968422 6.63325-.30347369 9.25925.66894737.752375 1.47494737 1.32275 2.36578947 1.69-.97242105 1.685125-1.49778947 3.609125-1.49942105 5.6095l-.00652631 1.534c0 1.81025.73747368 3.563625 2.02152631 4.811625 1.30363158 1.2675 3.0151579 1.911 4.81805263 1.82975 2.40657893-.115375 4.45421053-1.56975 5.49026313-3.65625 1.0344211 2.0865 3.0820527 3.540875 5.4886316 3.65625.1076842.004875.2121053.008125.3181579.008125 1.6854211 0 3.2729474-.645125 4.4998947-1.837875 1.2840527-1.248 2.0215264-3.001375 2.0215264-4.81975l-.0065264-1.519375c-.0016315-1.99875-.5221052-3.917875-1.4912631-5.59975.9038947-.3705 1.7213158-.944125 2.4000526-1.70625 2.3478421-2.626 2.2156842-6.695-.3148947-9.27225m-5.611 19.71125c-.4356316.420875-1.0066842.637-1.6103684.609375-1.1404737-.05525-2.0672106-1.105-2.0672106-2.341625v-.69875c0-.989625-.3785263-1.9175-1.0621579-2.614625-1.4145789-1.43975-3.7167368-1.43975-5.1296842 0-.6852631.697125-1.0637894 1.625-1.0637894 2.614625v.69875c0 1.236625-.9267369 2.286375-2.06721057 2.341625-.60042106.02925-1.17473685-.186875-1.60873685-.609375-.434-.424125-.6738421-.992875-.6738421-1.597375l.00489474-1.53075c.00326315-1.782625.68526315-3.458 1.922-4.717375l2.17978948-2.1775v-.04225-6.20425h-.0244737l-2.92542105 2.92825c-.42421052.43225-.99526316.65975-1.59078947.64675-.5971579-.013-1.15352632-.273-1.55978947-.728-.76847369-.858-.69668422-2.2685.14194736-3.124875l4.67773683-4.649125c2.8617895-2.916875 7.5199474-2.916875 10.3947895.013l4.6092105 4.619875c.8582105.872625.93 2.283125.1615263 3.141125-.4062631.455-.961.715-1.5597894.728-.6069474.0195-1.166579-.2145-1.5907895-.64675l-.0277369.027625-.073421-.078-2.8666842-2.877875h-.0244737v6.20425.04225l2.1797895 2.1775c1.2367368 1.259375 1.9187368 2.93475 1.922 4.7255l.0048947 1.5145c0 .612625-.2398421 1.181375-.6722105 1.6055"/></g></svg>

<?xml version="1.0" encoding="UTF-8"?>
<svg width="31px" height="52px" viewBox="0 0 31 52" version="1.1" xmlns="http://www.w3.org/2000/svg" xmlns:xlink="http://www.w3.org/1999/xlink">
    <!-- Generator: Sketch 52.5 (67469) - http://www.bohemiancoding.com/sketch -->
    <title>Icons/.child-care</title>
    <desc>Created with Sketch.</desc>
    <g id="Vapaaehtoisalusta-Layouts" stroke="none" stroke-width="1" fill="none" fill-rule="evenodd">
        <g id="HKI-Ikonit" transform="translate(-1138.000000, -532.000000)" fill="#010202">
            <g id="Icons/.child-care" transform="translate(1138.000000, 532.000000)">
                <path d="M15.2867526,5.0194625 C17.2854368,5.0194625 18.9121211,6.6785875 18.9121211,8.7130875 C18.9121211,10.7508375 17.2854368,12.4083375 15.2867526,12.4083375 C13.2864368,12.4083375 11.6597526,10.7508375 11.6597526,8.7130875 C11.6597526,6.6785875 13.2864368,5.0194625 15.2867526,5.0194625 M15.2867526,0.5864625 C10.8814895,0.5864625 7.30833158,4.2248375 7.30833158,8.7130875 C7.30833158,13.2013375 10.8814895,16.8413375 15.2867526,16.8413375 C19.6903842,16.8413375 23.2635421,13.2013375 23.2635421,8.7130875 C23.2635421,4.2248375 19.6903842,0.5864625 15.2867526,0.5864625" id="Fill-90"></path>
                <path d="M28.2023316,26.8125 L23.5931211,22.191 C19.0344895,17.548375 11.6157,17.548375 7.07664737,22.173125 L2.40054211,26.8255 C-0.116984211,29.38975 -0.249142105,33.45875 2.09706842,36.08475 C2.76601579,36.837125 3.57201579,37.4075 4.46285789,37.77475 C3.49043684,39.459875 2.96506842,41.383875 2.96343684,43.38425 L2.95691053,44.91825 C2.95691053,46.7285 3.69438421,48.481875 4.97843684,49.729875 C6.28206842,50.997375 7.99359474,51.640875 9.79648947,51.559625 C12.2030684,51.44425 14.2507,49.989875 15.2867526,47.903375 C16.3211737,49.989875 18.3688053,51.44425 20.7753842,51.559625 C20.8830684,51.5645 20.9874895,51.56775 21.0935421,51.56775 C22.7789632,51.56775 24.3664895,50.922625 25.5934368,49.729875 C26.8774895,48.481875 27.6149632,46.7285 27.6149632,44.910125 L27.6084368,43.39075 C27.6068053,41.392 27.0863316,39.472875 26.1171737,37.791 C27.0210684,37.4205 27.8384895,36.846875 28.5172263,36.08475 C30.8650684,33.45875 30.7329105,29.38975 28.2023316,26.8125 M22.5913316,46.52375 C22.1557,46.944625 21.5846474,47.16075 20.9809632,47.133125 C19.8404895,47.077875 18.9137526,46.028125 18.9137526,44.7915 L18.9137526,44.09275 C18.9137526,43.103125 18.5352263,42.17525 17.8515947,41.478125 C16.4370158,40.038375 14.1348579,40.038375 12.7219105,41.478125 C12.0366474,42.17525 11.6581211,43.103125 11.6581211,44.09275 L11.6581211,44.7915 C11.6581211,46.028125 10.7313842,47.077875 9.59091053,47.133125 C8.99048947,47.162375 8.41617368,46.94625 7.98217368,46.52375 C7.54817368,46.099625 7.30833158,45.530875 7.30833158,44.926375 L7.31322632,43.395625 C7.31648947,41.613 7.99848947,39.937625 9.23522632,38.67825 L11.4150158,36.50075 L11.4150158,36.4585 L11.4150158,30.25425 L11.3905421,30.25425 L8.46512105,33.1825 C8.04091053,33.61475 7.46985789,33.84225 6.87433158,33.82925 C6.27717368,33.81625 5.72080526,33.55625 5.31454211,33.10125 C4.54606842,32.24325 4.61785789,30.83275 5.45648947,29.976375 L10.1342263,25.32725 C12.9960158,22.410375 17.6541737,22.410375 20.5290158,25.34025 L25.1382263,29.960125 C25.9964368,30.83275 26.0682263,32.24325 25.2997526,33.10125 C24.8934895,33.55625 24.3387526,33.81625 23.7399632,33.82925 C23.1330158,33.84875 22.5733842,33.61475 22.1491737,33.1825 L22.1214368,33.210125 L22.0480158,33.132125 L19.1813316,30.25425 L19.1568579,30.25425 L19.1568579,36.4585 L19.1568579,36.50075 L21.3366474,38.67825 C22.5733842,39.937625 23.2553842,41.613 23.2586474,43.40375 L23.2635421,44.91825 C23.2635421,45.530875 23.0237,46.099625 22.5913316,46.52375" id="Fill-92"></path>
            </g>
        </g>
    </g>
</svg>
